svgs/regular/cup-straw.svg

<svg xmlns="http://www.w3.org/2000/svg" viewBox="0 0 384 512"><!--! Font Awesome Pro 6.6.0 by @fontawesome - https://fontawesome.com License - https://fontawesome.com/license (Commercial License) Copyright 2024 Fonticons, Inc. --><path d="M194.8 43.2l-20 84.8-94.7 0L32 128l-8 0c-13.3 0-24 10.7-24 24s10.7 24 24 24l12 0 48.2 0 89.9 0 35.8 0 89.9 0 48.2 0 12 0c13.3 0 24-10.7 24-24s-10.7-24-24-24l-8 0-48.2 0-79.6 0 17.4-73.8c.9-3.6 4.1-6.2 7.8-6.2L280 48c13.3 0 24-10.7 24-24s-10.7-24-24-24L249.3 0c-26 0-48.6 17.9-54.5 43.2zM38.7 208L60.3 468c2.1 24.9 22.9 44 47.8 44l167.7 0c25 0 45.8-19.1 47.8-44l21.7-260-48.2 0L275.8 464l-167.7 0L86.8 208l-48.2 0z"/></svg>

<svg xmlns="http://www.w3.org/2000/svg" viewBox="0 0 384 512"><!--! Font Awesome Pro 6.4.0 by @fontawesome - https://fontawesome.com License - https://fontawesome.com/license (Commercial License) Copyright 2023 Fonticons, Inc. --><path d="M194.8 43.2l-20 84.8H80.2 32 24c-13.3 0-24 10.7-24 24s10.7 24 24 24H36 84.2h89.9 35.8 89.9H348h12c13.3 0 24-10.7 24-24s-10.7-24-24-24h-8H303.8 224.2l17.4-73.8c.9-3.6 4.1-6.2 7.8-6.2H280c13.3 0 24-10.7 24-24s-10.7-24-24-24H249.3c-26 0-48.6 17.9-54.5 43.2zM38.7 208L60.3 468c2.1 24.9 22.9 44 47.8 44H275.8c25 0 45.8-19.1 47.8-44l21.7-260H297.2L275.8 464H108.2L86.8 208H38.7z"/></svg>
